X:210
T:Old Joe Clark
M:4/4
L:1/8
K:AMix
e2 f2 g2 f2 | e2 d2 c4 | e2 f2 g2 f2 | e4 e4 | 
e2 f2 g2 f2 | e2 d2 c4 | ABcA B2 G2 | A4 A4 :| 
A2 ABcB A2 | e2 d2 c4 | A2 ABcB A2 | G4 G4 | 
A2 ABcB A2 | e2 d2 c4 | ABcA B2 G2 | A4 A4 :| 

